X: 1914
T: Take The Fiddle Off The Wall
B: australian traditional tunes wiki
M:C
L:1/8
R: Set Tune
Q: 1/4=100
K:C
V:1 
E2|:"C"E2F2G3G|"Am"A2B2c3A|"G"B2BA G3F|"C"E2D2E2A2|
E2F2G3G|"Am"A2B2c3A|"G"BcBA GF (3FGF|"C"E2D2C3D:|
|:"C"E2G2EGce|"G"dcBdc2"C"G2|"C"E2G2EGce|1"G"dcBdc3"C"G:|2"G"dcBd"C"c3z||
"G7"G2f2f2e2|d2c2d4|"C"G2e2e3d|c2B2c4|
"C"G2e2"G"d3d|"C"G2e2"G"d2d2|"C"G2e2dedc|"G7"B2A2G3F||
% abcbook-tune_id 6342d5bed0a825e2e105c92a


% abcbook-boost 0
% abcbook-tablature 
% abcbook-transpose 
% abcbook-lastupdated 1665324487393
% abcbook-soundfonts 
% abcbook-repeats 1
% NFF Book 2009

